static/img/security_icon.svg

<svg fill="none" height="81" viewBox="0 0 63 81" width="63" xmlns="http://www.w3.org/2000/svg"><rect height="62" rx="3.5" stroke="#abb8ff" stroke-dasharray="2 2" width="62" x=".5" y=".616211"/><circle cx="31.5525" cy="38.8823" fill="#abb8ff" fill-opacity=".3" r="10.8035" stroke="#abb8ff" stroke-linecap="round"/><path d="m13.0946 58.1913c1.5299-3.3089 5.0376-4.9607 8.683-4.9607h19.5496c3.6454 0 7.153 1.6518 8.6829 4.9606 1.2863 2.782 2.5478 6.5801 2.7171 10.9942.0212.5518-.4285 1.0004-.9808 1.0004h-40.3881c-.5522 0-1.0019-.4486-.9807-1.0005.1693-4.414 1.4308-8.2121 2.717-10.994z" fill="#020013" stroke="#abb8ff" stroke-linecap="round"/><path d="m22.5695 32.3175-3.1391-14.6175 8.1113 5.6571 3.7376-8.1983 3.7581 7.8718 7.7031-5.3306-2.7989 14.6175s-4.4723 1.0817-8.8561.864-8.516-.864-8.516-.864z" fill="#020013" stroke="#abb8ff" stroke-miterlimit="10"/><g fill="#abb8ff"><path d="m31.2792 17.0674c1.0537 0 1.9079-.8544 1.9079-1.9084s-.8542-1.9084-1.9079-1.9084c-1.0538 0-1.908.8544-1.908 1.9084s.8542 1.9084 1.908 1.9084z"/><path d="m42.7405 19.6082c1.0537 0 1.9079-.8544 1.9079-1.9084s-.8542-1.9084-1.9079-1.9084-1.9079.8544-1.9079 1.9084.8542 1.9084 1.9079 1.9084z"/><path d="m19.4304 19.6082c1.0537 0 1.9079-.8544 1.9079-1.9084s-.8542-1.9084-1.9079-1.9084-1.9079.8544-1.9079 1.9084.8542 1.9084 1.9079 1.9084z"/><path d="m25.348 16.8464c.5823 0 1.0543-.4721 1.0543-1.0545 0-.5825-.472-1.0546-1.0543-1.0546s-1.0543.4721-1.0543 1.0546c0 .5824.472 1.0545 1.0543 1.0545z"/><path d="m37.1594 16.8464c.5823 0 1.0543-.4721 1.0543-1.0545 0-.5825-.472-1.0546-1.0543-1.0546s-1.0543.4721-1.0543 1.0546c0 .5824.472 1.0545 1.0543 1.0545z"/></g><path d="m23.2463 20.3601 2.1018-4.2964 2.7445 6.079" stroke="#abb8ff" stroke-miterlimit="10"/><path d="m34.3572 21.6086 2.8024-5.5449 2.0678 4.0651" stroke="#abb8ff" stroke-miterlimit="10"/><path d="m21.9776 29.5758c7.5297 1.2315 11.0871 1.2178 18.4876 0" stroke="#abb8ff" stroke-miterlimit="10"/><path d="m33.2208 60.0238 7.4399 1.984c.4377.1167.7423.5132.7423.9662v7.9609c0 2.0062-1.0026 3.8795-2.6718 4.9923l-5.7287 3.8192c-.3359.2239-.7735.2239-1.1094 0l-5.7287-3.8192c-1.6692-1.1127-2.6718-2.9861-2.6718-4.9923v-7.9609c0-.453.3045-.8495.7423-.9662l7.4399-1.984c.5065-.135 1.0395-.135 1.546 0z" fill="#020013"/><path d="m33.2208 60.0238 7.4399 1.984c.4377.1167.7423.5132.7423.9662v7.9609c0 2.0062-1.0026 3.8795-2.6718 4.9923l-5.7287 3.8192c-.3359.2239-.7735.2239-1.1094 0l-5.7287-3.8192c-1.6692-1.1127-2.6718-2.9861-2.6718-4.9923v-7.9609c0-.453.3045-.8495.7423-.9662l7.4399-1.984c.5065-.135 1.0395-.135 1.546 0z" fill="#abb8ff" fill-opacity=".3"/><path d="m33.2208 60.0238 7.4399 1.984c.4377.1167.7423.5132.7423.9662v7.9609c0 2.0062-1.0026 3.8795-2.6718 4.9923l-5.7287 3.8192c-.3359.2239-.7735.2239-1.1094 0l-5.7287-3.8192c-1.6692-1.1127-2.6718-2.9861-2.6718-4.9923v-7.9609c0-.453.3045-.8495.7423-.9662l7.4399-1.984c.5065-.135 1.0395-.135 1.546 0z" stroke="#abb8ff" stroke-linecap="round"/><path d="m30.0599 69.9668 2.2112 2.2112c.0977.0977.256.0977.3536 0l4.0023-4.0023" stroke="#ea4040" stroke-linecap="round"/></svg>

<svg width="63" height="81" viewBox="0 0 63 81" fill="none" xmlns="http://www.w3.org/2000/svg">
<rect x="0.5" y="0.616211" width="62" height="62" rx="3.5" stroke="#ABB8FF" stroke-dasharray="2 2"/>
<circle cx="31.5525" cy="38.8823" r="10.8035" fill="#ABB8FF" fill-opacity="0.3" stroke="#ABB8FF" stroke-linecap="round"/>
<path d="M13.0946 58.1913C14.6245 54.8824 18.1322 53.2306 21.7776 53.2306H41.3272C44.9726 53.2306 48.4802 54.8824 50.0101 58.1912C51.2964 60.9732 52.5579 64.7713 52.7272 69.1854C52.7484 69.7372 52.2987 70.1858 51.7464 70.1858H11.3583C10.8061 70.1858 10.3564 69.7372 10.3776 69.1853C10.5469 64.7713 11.8084 60.9732 13.0946 58.1913Z" fill="#020013" stroke="#ABB8FF" stroke-linecap="round"/>
<path d="M22.5695 32.3175L19.4304 17.7L27.5417 23.3571L31.2793 15.1588L35.0374 23.0306L42.7405 17.7L39.9416 32.3175C39.9416 32.3175 35.4693 33.3992 31.0855 33.1815C26.7017 32.9638 22.5695 32.3175 22.5695 32.3175Z" fill="#020013" stroke="#ABB8FF" stroke-miterlimit="10"/>
<path d="M31.2792 17.0674C32.3329 17.0674 33.1871 16.213 33.1871 15.159C33.1871 14.105 32.3329 13.2506 31.2792 13.2506C30.2254 13.2506 29.3712 14.105 29.3712 15.159C29.3712 16.213 30.2254 17.0674 31.2792 17.0674Z" fill="#ABB8FF"/>
<path d="M42.7405 19.6082C43.7942 19.6082 44.6484 18.7538 44.6484 17.6998C44.6484 16.6458 43.7942 15.7914 42.7405 15.7914C41.6868 15.7914 40.8326 16.6458 40.8326 17.6998C40.8326 18.7538 41.6868 19.6082 42.7405 19.6082Z" fill="#ABB8FF"/>
<path d="M19.4304 19.6082C20.4841 19.6082 21.3383 18.7538 21.3383 17.6998C21.3383 16.6458 20.4841 15.7914 19.4304 15.7914C18.3767 15.7914 17.5225 16.6458 17.5225 17.6998C17.5225 18.7538 18.3767 19.6082 19.4304 19.6082Z" fill="#ABB8FF"/>
<path d="M25.348 16.8464C25.9303 16.8464 26.4023 16.3743 26.4023 15.7919C26.4023 15.2094 25.9303 14.7373 25.348 14.7373C24.7657 14.7373 24.2937 15.2094 24.2937 15.7919C24.2937 16.3743 24.7657 16.8464 25.348 16.8464Z" fill="#ABB8FF"/>
<path d="M37.1594 16.8464C37.7417 16.8464 38.2137 16.3743 38.2137 15.7919C38.2137 15.2094 37.7417 14.7373 37.1594 14.7373C36.5771 14.7373 36.1051 15.2094 36.1051 15.7919C36.1051 16.3743 36.5771 16.8464 37.1594 16.8464Z" fill="#ABB8FF"/>
<path d="M23.2463 20.3601L25.3481 16.0637L28.0926 22.1427" stroke="#ABB8FF" stroke-miterlimit="10"/>
<path d="M34.3572 21.6086L37.1596 16.0637L39.2274 20.1288" stroke="#ABB8FF" stroke-miterlimit="10"/>
<path d="M21.9776 29.5758C29.5073 30.8073 33.0647 30.7936 40.4652 29.5758" stroke="#ABB8FF" stroke-miterlimit="10"/>
<path d="M33.2208 60.0238L40.6607 62.0078C41.0984 62.1245 41.403 62.521 41.403 62.974V70.9349C41.403 72.9411 40.4004 74.8144 38.7312 75.9272L33.0025 79.7464C32.6666 79.9703 32.229 79.9703 31.8931 79.7464L26.1644 75.9272C24.4952 74.8145 23.4926 72.9411 23.4926 70.9349V62.974C23.4926 62.521 23.7971 62.1245 24.2349 62.0078L31.6748 60.0238C32.1813 59.8888 32.7143 59.8888 33.2208 60.0238Z" fill="#020013"/>
<path d="M33.2208 60.0238L40.6607 62.0078C41.0984 62.1245 41.403 62.521 41.403 62.974V70.9349C41.403 72.9411 40.4004 74.8144 38.7312 75.9272L33.0025 79.7464C32.6666 79.9703 32.229 79.9703 31.8931 79.7464L26.1644 75.9272C24.4952 74.8145 23.4926 72.9411 23.4926 70.9349V62.974C23.4926 62.521 23.7971 62.1245 24.2349 62.0078L31.6748 60.0238C32.1813 59.8888 32.7143 59.8888 33.2208 60.0238Z" fill="#ABB8FF" fill-opacity="0.3"/>
<path d="M33.2208 60.0238L40.6607 62.0078C41.0984 62.1245 41.403 62.521 41.403 62.974V70.9349C41.403 72.9411 40.4004 74.8144 38.7312 75.9272L33.0025 79.7464C32.6666 79.9703 32.229 79.9703 31.8931 79.7464L26.1644 75.9272C24.4952 74.8145 23.4926 72.9411 23.4926 70.9349V62.974C23.4926 62.521 23.7971 62.1245 24.2349 62.0078L31.6748 60.0238C32.1813 59.8888 32.7143 59.8888 33.2208 60.0238Z" stroke="#ABB8FF" stroke-linecap="round"/>
<path d="M30.0599 69.9668L32.2711 72.178C32.3688 72.2757 32.5271 72.2757 32.6247 72.178L36.627 68.1757" stroke="#EA4040" stroke-linecap="round"/>
</svg>
